Numix-Circle/48x48/apps/vlc.svg

<?xml version="1.0" encoding="UTF-8" standalone="no"?>
<svg
   xmlns:dc="http://purl.org/dc/elements/1.1/"
   xmlns:cc="http://creativecommons.org/ns#"
   xmlns:rdf="http://www.w3.org/1999/02/22-rdf-syntax-ns#"
   xmlns:svg="http://www.w3.org/2000/svg"
   xmlns="http://www.w3.org/2000/svg"
   xmlns:xlink="http://www.w3.org/1999/xlink"
   xmlns:sodipodi="http://sodipodi.sourceforge.net/DTD/sodipodi-0.dtd"
   xmlns:inkscape="http://www.inkscape.org/namespaces/inkscape"
   viewBox="0 0 48 48"
   id="svg2"
   version="1.1"
   inkscape:version="0.48.4 r9939"
   width="100%"
   height="100%"
   sodipodi:docname="vlc.svg">
  <metadata
     id="metadata80">
    <rdf:RDF>
      <cc:Work
         rdf:about="">
        <dc:format>image/svg+xml</dc:format>
        <dc:type
           rdf:resource="http://purl.org/dc/dcmitype/StillImage" />
      </cc:Work>
    </rdf:RDF>
  </metadata>
  <sodipodi:namedview
     pagecolor="#ffffff"
     bordercolor="#666666"
     borderopacity="1"
     objecttolerance="10"
     gridtolerance="10"
     guidetolerance="10"
     inkscape:pageopacity="0"
     inkscape:pageshadow="2"
     inkscape:window-width="1280"
     inkscape:window-height="960"
     id="namedview78"
     showgrid="false"
     inkscape:zoom="9.8333332"
     inkscape:cx="17.633176"
     inkscape:cy="26.018967"
     inkscape:window-x="0"
     inkscape:window-y="0"
     inkscape:window-maximized="1"
     inkscape:current-layer="svg2" />
  <defs
     id="defs4">
    <linearGradient
       id="linearGradient3764"
       x1="1"
       x2="47"
       gradientUnits="userSpaceOnUse"
       gradientTransform="matrix(0,-1,1,0,-1.5e-6,47.999998)">
      <stop
         stop-color="#ffab09"
         stop-opacity="1"
         id="stop7" />
      <stop
         offset="1"
         stop-color="#ffb31d"
         stop-opacity="1"
         id="stop9" />
    </linearGradient>
    <clipPath
       id="clipPath-977541534">
      <g
         transform="translate(0,-1004.3622)"
         id="g12">
        <path
           d="m -24 13 c 0 1.105 -0.672 2 -1.5 2 -0.828 0 -1.5 -0.895 -1.5 -2 0 -1.105 0.672 -2 1.5 -2 0.828 0 1.5 0.895 1.5 2 z"
           transform="matrix(15.333333,0,0,11.5,414.99999,878.8622)"
           fill="#1890d0"
           id="path14" />
      </g>
    </clipPath>
    <clipPath
       id="clipPath-983980153">
      <g
         transform="translate(0,-1004.3622)"
         id="g17">
        <path
           d="m -24 13 c 0 1.105 -0.672 2 -1.5 2 -0.828 0 -1.5 -0.895 -1.5 -2 0 -1.105 0.672 -2 1.5 -2 0.828 0 1.5 0.895 1.5 2 z"
           transform="matrix(15.333333,0,0,11.5,414.99999,878.8622)"
           fill="#1890d0"
           id="path19" />
      </g>
    </clipPath>
    <linearGradient
       id="linear0"
       gradientUnits="userSpaceOnUse"
       x1="7.781"
       x2="43.44"
       gradientTransform="matrix(1.115973,0,0,1.115973,-3.038375,-2.730839)">
      <stop
         stop-color="#e5e5e5"
         stop-opacity="1"
         id="stop22" />
      <stop
         offset="0.5"
         stop-color="#f9f9f9"
         stop-opacity="1"
         id="stop24" />
      <stop
         offset="1"
         stop-color="#e5e5e5"
         stop-opacity="1"
         id="stop26" />
    </linearGradient>
    <linearGradient
       id="linearGradient28"
       gradientUnits="userSpaceOnUse"
       x1="7.781"
       x2="43.44"
       gradientTransform="matrix(1.115973,0,0,1.115973,-3.038375,-2.730839)">
      <stop
         stop-color="#e5e5e5"
         stop-opacity="1"
         id="stop30" />
      <stop
         offset="0.5"
         stop-color="#f9f9f9"
         stop-opacity="1"
         id="stop32" />
      <stop
         offset="1"
         stop-color="#e5e5e5"
         stop-opacity="1"
         id="stop34" />
    </linearGradient>
    <linearGradient
       inkscape:collect="always"
       xlink:href="#linear0"
       id="linearGradient3061"
       gradientUnits="userSpaceOnUse"
       gradientTransform="matrix(1.115973,0,0,1.115973,-3.038375,-2.730839)"
       x1="7.781"
       x2="43.44" />
    <linearGradient
       inkscape:collect="always"
       xlink:href="#linear0"
       id="linearGradient3066"
       gradientUnits="userSpaceOnUse"
       gradientTransform="matrix(1.115973,0,0,1.115973,-3.038375,-2.730839)"
       x1="7.781"
       x2="43.44" />
    <linearGradient
       inkscape:collect="always"
       xlink:href="#linear0"
       id="linearGradient3070"
       gradientUnits="userSpaceOnUse"
       gradientTransform="matrix(1.115973,0,0,1.115973,-3.038375,-2.730839)"
       x1="7.781"
       x2="43.44" />
    <linearGradient
       inkscape:collect="always"
       xlink:href="#linearGradient3764"
       id="linearGradient3078"
       gradientUnits="userSpaceOnUse"
       gradientTransform="matrix(0,-1,1,0,-1.5e-6,47.999998)"
       x1="1"
       x2="47" />
    <linearGradient
       inkscape:collect="always"
       xlink:href="#linearGradient3764"
       id="linearGradient3081"
       gradientUnits="userSpaceOnUse"
       gradientTransform="matrix(0,-1,1,0,-1.5e-6,47.999998)"
       x1="1"
       x2="47" />
    <linearGradient
       inkscape:collect="always"
       xlink:href="#linear0"
       id="linearGradient3094"
       gradientUnits="userSpaceOnUse"
       gradientTransform="matrix(1.115973,0,0,1.115973,-3.038375,-2.730839)"
       x1="7.781"
       x2="43.44" />
    <linearGradient
       inkscape:collect="always"
       xlink:href="#linear0"
       id="linearGradient3103"
       gradientUnits="userSpaceOnUse"
       gradientTransform="matrix(1.115973,0,0,1.115973,-3.038375,-2.730839)"
       x1="7.781"
       x2="43.44" />
    <linearGradient
       inkscape:collect="always"
       xlink:href="#linearGradient3764"
       id="linearGradient3105"
       gradientUnits="userSpaceOnUse"
       gradientTransform="matrix(0,-1,1,0,-1.5e-6,47.999998)"
       x1="1"
       x2="47" />
    <linearGradient
       inkscape:collect="always"
       xlink:href="#linearGradient3764"
       id="linearGradient3108"
       gradientUnits="userSpaceOnUse"
       gradientTransform="matrix(0,-1,1,0,-1.5e-6,47.999998)"
       x1="1"
       x2="47" />
  </defs>
  <g
     id="g36">
    <path
       d="m 36.31 5 c 5.859 4.062 9.688 10.831 9.688 18.5 c 0 12.426 -10.07 22.5 -22.5 22.5 c -7.669 0 -14.438 -3.828 -18.5 -9.688 c 1.037 1.822 2.306 3.499 3.781 4.969 c 4.085 3.712 9.514 5.969 15.469 5.969 c 12.703 0 23 -10.298 23 -23 c 0 -5.954 -2.256 -11.384 -5.969 -15.469 c -1.469 -1.475 -3.147 -2.744 -4.969 -3.781 z m 4.969 3.781 c 3.854 4.113 6.219 9.637 6.219 15.719 c 0 12.703 -10.297 23 -23 23 c -6.081 0 -11.606 -2.364 -15.719 -6.219 c 4.16 4.144 9.883 6.719 16.219 6.719 c 12.703 0 23 -10.298 23 -23 c 0 -6.335 -2.575 -12.06 -6.719 -16.219 z"
       opacity="0.05"
       id="path38" />
    <path
       d="m 41.28 8.781 c 3.712 4.085 5.969 9.514 5.969 15.469 c 0 12.703 -10.297 23 -23 23 c -5.954 0 -11.384 -2.256 -15.469 -5.969 c 4.113 3.854 9.637 6.219 15.719 6.219 c 12.703 0 23 -10.298 23 -23 c 0 -6.081 -2.364 -11.606 -6.219 -15.719 z"
       opacity="0.1"
       id="path40" />
    <path
       d="m 31.25 2.375 c 8.615 3.154 14.75 11.417 14.75 21.13 c 0 12.426 -10.07 22.5 -22.5 22.5 c -9.708 0 -17.971 -6.135 -21.12 -14.75 a 23 23 0 0 0 44.875 -7 a 23 23 0 0 0 -16 -21.875 z"
       opacity="0.2"
       id="path42" />
  </g>
  <path
     style="fill:url(#linearGradient3108);fill-opacity:1"
     d="m 24,1 c 0.51508,0 1.024608,0.029167 1.53125,0.0625 C 25.024608,1.0291668 24.51508,1 24,1 z m 1.53125,0.0625 C 24.994749,13.611068 34.603389,20.817416 46.6875,27.8125 46.895128,26.570189 47,25.30129 47,24 47,11.81208 37.519517,1.8512363 25.53125,1.0625 z M 4.9375,11.15625 C 2.4665973,14.822767 1,19.245819 1,24 1,36.703 11.297,47 24,47 25.89611,47 27.737344,46.776341 29.5,46.34375 21.974319,37.481411 13.253262,22.781299 4.9375,11.15625 z"
     id="path46"
     inkscape:connector-curvature="0"
     sodipodi:nodetypes="cccccsccsscc" />
  <g
     id="g48" />
  <path
     style="fill:url(#linearGradient3094);fill-rule:evenodd;stroke:none"
     d="M 24 1 C 16.060625 1 9.0706738 5.0069824 4.9375 11.125 C 4.9403422 11.134804 4.9346523 11.146447 4.9375 11.15625 C 9.1981295 25.822648 19.619651 39.247412 29.5 46.34375 C 38.336569 44.17508 45.170829 36.887272 46.6875 27.8125 C 37.753381 19.798301 30.882618 11.706169 25.53125 1.0625 C 25.024608 1.0291668 24.51508 1 24 1 z "
     id="path70" />
  <path
     style="opacity:0.1;fill:#000000;fill-opacity:1;fill-rule:nonzero;stroke:none"
     inkscape:connector-curvature="0"
     id="path62"
     d="m 22,18 0,13 10,-6.5 M 22,18" />
  <path
     style="fill:#2d2d2d;fill-opacity:1;fill-rule:nonzero;stroke:none"
     inkscape:connector-curvature="0"
     id="path72"
     d="m 21,17 0,13 10,-6.5 M 21,17" />
  <g
     id="g74">
    <path
       d="m 40.03 7.531 c 3.712 4.084 5.969 9.514 5.969 15.469 0 12.703 -10.297 23 -23 23 c -5.954 0 -11.384 -2.256 -15.469 -5.969 4.178 4.291 10.01 6.969 16.469 6.969 c 12.703 0 23 -10.298 23 -23 0 -6.462 -2.677 -12.291 -6.969 -16.469 z"
       opacity="0.1"
       id="path76" />
  </g>
</svg>

<svg xmlns="http://www.w3.org/2000/svg" viewBox="0 0 48 48"><defs><clipPath><g transform="translate(0,-1004.3622)"><path d="m -24 13 c 0 1.105 -0.672 2 -1.5 2 -0.828 0 -1.5 -0.895 -1.5 -2 0 -1.105 0.672 -2 1.5 -2 0.828 0 1.5 0.895 1.5 2 z" transform="matrix(15.333333,0,0,11.5,414.99999,878.8622)" fill="#1890d0"/></g></clipPath><clipPath><g transform="translate(0,-1004.3622)"><path d="m -24 13 c 0 1.105 -0.672 2 -1.5 2 -0.828 0 -1.5 -0.895 -1.5 -2 0 -1.105 0.672 -2 1.5 -2 0.828 0 1.5 0.895 1.5 2 z" transform="matrix(15.333333,0,0,11.5,414.99999,878.8622)" fill="#1890d0"/></g></clipPath><linearGradient id="linearGradient3094" gradientUnits="userSpaceOnUse" gradientTransform="matrix(1.115973,0,0,1.115973,-3.038375,-2.730839)" x1="7.781" x2="43.44"><stop stop-color="#e5e5e5" stop-opacity="1"/><stop offset="0.5" stop-color="#f9f9f9" stop-opacity="1"/><stop offset="1" stop-color="#e5e5e5" stop-opacity="1"/></linearGradient><linearGradient id="linearGradient3108" gradientUnits="userSpaceOnUse" gradientTransform="matrix(0,-1,1,0,-1.5e-6,47.999998)" x1="1" x2="47"><stop stop-color="#ffab09" stop-opacity="1"/><stop offset="1" stop-color="#ffb31d" stop-opacity="1"/></linearGradient></defs><g><path d="m 36.31 5 c 5.859 4.062 9.688 10.831 9.688 18.5 c 0 12.426 -10.07 22.5 -22.5 22.5 c -7.669 0 -14.438 -3.828 -18.5 -9.688 c 1.037 1.822 2.306 3.499 3.781 4.969 c 4.085 3.712 9.514 5.969 15.469 5.969 c 12.703 0 23 -10.298 23 -23 c 0 -5.954 -2.256 -11.384 -5.969 -15.469 c -1.469 -1.475 -3.147 -2.744 -4.969 -3.781 z m 4.969 3.781 c 3.854 4.113 6.219 9.637 6.219 15.719 c 0 12.703 -10.297 23 -23 23 c -6.081 0 -11.606 -2.364 -15.719 -6.219 c 4.16 4.144 9.883 6.719 16.219 6.719 c 12.703 0 23 -10.298 23 -23 c 0 -6.335 -2.575 -12.06 -6.719 -16.219 z" opacity="0.05"/><path d="m 41.28 8.781 c 3.712 4.085 5.969 9.514 5.969 15.469 c 0 12.703 -10.297 23 -23 23 c -5.954 0 -11.384 -2.256 -15.469 -5.969 c 4.113 3.854 9.637 6.219 15.719 6.219 c 12.703 0 23 -10.298 23 -23 c 0 -6.081 -2.364 -11.606 -6.219 -15.719 z" opacity="0.1"/><path d="m 31.25 2.375 c 8.615 3.154 14.75 11.417 14.75 21.13 c 0 12.426 -10.07 22.5 -22.5 22.5 c -9.708 0 -17.971 -6.135 -21.12 -14.75 a 23 23 0 0 0 44.875 -7 a 23 23 0 0 0 -16 -21.875 z" opacity="0.2"/></g><path d="m 24 1 c 0.515 0 1.025 0.029 1.531 0.063 c -0.507 -0.033 -1.016 -0.063 -1.531 -0.063 z m 1.531 0.063 c -0.537 12.549 9.07 19.755 21.16 26.75 0.208 -1.242 0.313 -2.511 0.313 -3.813 0 -12.188 -9.48 -22.15 -21.469 -22.938 z m -20.594 10.09 c -2.471 3.667 -3.938 8.09 -3.938 12.844 0 12.703 10.297 23 23 23 1.896 0 3.737 -0.224 5.5 -0.656 -7.526 -8.862 -16.247 -23.562 -24.563 -35.19 z" fill="url(#linearGradient3108)" fill-opacity="1"/><path d="m 24 1 c -7.939 0 -14.929 4.01 -19.06 10.125 c 0.003 0.01 -0.003 0.021 0 0.031 c 4.261 14.666 14.682 28.09 24.563 35.19 c 8.837 -2.169 15.671 -9.456 17.188 -18.531 c -8.934 -8.01 -15.805 -16.11 -21.16 -26.75 c -0.507 -0.033 -1.016 -0.063 -1.531 -0.063 z" fill="url(#linearGradient3094)" fill-rule="evenodd" stroke="none"/><path d="m 22,18 0,13 10,-6.5 M 22,18" opacity="0.1" fill="#000" fill-rule="nonzero" stroke="none" fill-opacity="1"/><path d="m 21,17 0,13 10,-6.5 M 21,17" fill="#2d2d2d" fill-rule="nonzero" stroke="none" fill-opacity="1"/><g><path d="m 40.03 7.531 c 3.712 4.084 5.969 9.514 5.969 15.469 0 12.703 -10.297 23 -23 23 c -5.954 0 -11.384 -2.256 -15.469 -5.969 4.178 4.291 10.01 6.969 16.469 6.969 c 12.703 0 23 -10.298 23 -23 0 -6.462 -2.677 -12.291 -6.969 -16.469 z" opacity="0.1"/></g></svg>
